X:1
T:Jesus Set the Music Ringing
T:Jesus Set the Music Ringing
T:Charles Ausitn Miles
T:George Orlia Webster, 1919
T:Public Domain Courtesy of the Cyber Hymnal™
T:Public Domain Courtesy of the Cyber Hymnal™
C:Charles Ausitn Miles
Z:Public Domain
Z:Courtesy of the Cyber Hymnal™
%%score ( 1 2 ) ( 3 4 )
L:1/8
Q:1/4=95
M:4/4
K:G
V:1 treble 
V:2 treble 
V:3 bass 
V:4 bass 
V:1
 D | [GB]>[G^A] [GB][D=A] [DG] [DB]2 [DG] | [EA]2 [EG]2 [CE]3 [CE] | %3
w: 1.~You|ask what makes me hap- py the|whole day long, Why|
w: 2.~I|can- not keep from sing- ing since|that glad day, When|
w: 3.~His|love each day is grow- ing more|sweet to me, Each|
 [B,D][DG][DG][DA] [GB] [Gd]2 G | [GB]2 [FA]2 [DG]3 [DG] | [DA]>[D^G] [DA][=FB] [^Fc] [Fc]2 [DF] | %6
w: I am al- ways sing- ing a|glad- some song; Ah,|well I do re- mem- ber when|
w: Je- sus took, in mer- cy, my|sins a- way; He|o- pened up a fount- ain whence|
w: day new grace and beau- ty in|Him I see; For|all this world can of- fer from|
 [DG]>[DF] [DG][FA] [GB]3 [GB] | [Gd]>[GB] [DG][B,D] [CE]<[Ec] [EB]<[EA] | [GB]2 [FA]2 G2 || %9
w: song be- gan to start, ’Twas|Je- sus set the mu- sic ring- ing|in my heart.|
w: streams of glad- ness start, ’Twas|Je- sus set the mu- sic ring- ing|in my heart.|
w: Him I would not part, Since|He has set the mu- sic ring- ing|in my heart.|
"^Refrain" [Ac][GB] | [FA]4- [FA][^E^G][FA][=GB] | [Ac]2 [^GB]2 [Ac][FA][Bd][Ac] | %12
w: |||
w: In my|heart, * He set the|mu- sic ring- ing, In my|
w: |||
 [GB]4- [GB][FA][GB][Ac] | [Bd]2 [^A^c]2 [Bd] [GB]2 D | [DB]>[^C^A] [DB][=C=A] [B,G] [DB]2 [DG] | %15
w: |||
w: life * a heav’n- ly|glad- ness bring- ing; Ah,|well do I re- mem- ber when|
w: |||
 [EA]>[EG] [EA][EG] [CE]3 [CG] | [B,D][DG]"^riten."[DG][DA] [DB]<[Gd] [Gd]<!fermata![Ge] | %17
w: ||
w: song be- gan to start, ’Twas|Je- sus set the mu- sic ring- ing,|
w: ||
 !fermata!B2 !fermata!A2 !fermata![DG]3 |] %18
w: |
w: ring- ing in|
w: |
V:2
 D | x8 | x8 | x7 G | x8 | x8 | x8 | x8 | x4 G2 || x2 | x8 | x8 | x8 | x7 D | x8 | x8 | x8 | %17
 GGFF x3 |] %18
V:3
 [G,B,] | [G,D]>[G,^C] [G,D][G,=C] [G,B,] [G,B,]2 [G,B,] | [C,C]2 [C,C]2 [C,G,]3 [C,G,] | %3
w: ~|~ ~ ~ ~ ~ ~ ~|~ ~ ~ ~|
 [G,,G,][B,,G,][B,,G,][D,F,] G, [G,B,]2 [G,B,] | [D,E]2 [D,D]2 [G,B,]3 [G,B,] | %5
w: ~ ~ ~ ~ ~ ~ ~|~ ~ ~ ~|
 [D,F,]>[D,^E,] [D,F,][D,^G,] [D,A,] [D,A,]2 [D,C] | [G,B,]>[A,C] [G,B,][B,,D] [G,D]3 [G,D] | %7
w: ~ ~ ~ ~ ~ ~ ~|~ ~ ~ ~ ~ ~|
 [G,B,]>[G,D] [G,B,][G,,G,] [C,G,]<[A,,A,] [B,,^G,]<[C,A,] | [D,D]2 [D,C]2 [G,B,]2 || z2 | %10
w: ~ ~ ~ ~ ~ ~ ~ ~|~ ~ ~||
 z2 [D,D][D,D] [D,D][D,D][D,D][D,D] | [D,D]2 [D,D]2 [D,D][D,D] z2 | %12
w: In my heart ~ ~ ~|~ ~ ~ ~|
 z2 [G,D][G,D] [G,D][G,D][G,D][G,D] | [G,D]2 [G,D]2 [G,D] [G,D]2 [G,B,] | %14
w: In my life * * *||
 [G,,G,]>[G,,G,] [G,,G,][G,,G,] [G,,G,] [G,,G,]2 [B,,G,] | [C,C]>[C,C] [C,C][C,C] [C,G,]3 [C,E,] | %16
w: ||
 [G,,G,][B,,G,][B,,G,][D,F,] G,<[G,B,] [G,B,]<!fermata![C,C] | [D,B,][D,D][D,C][D,C] [G,B,]3 |] %18
w: ||
V:4
 x | x8 | x8 | x4 G, x3 | x8 | x8 | x8 | x8 | x6 || x2 | x8 | x8 | x8 | x8 | x8 | x8 | %16
 x4 G,/ x7/2 | x7 |] %18

